packages/synapse-interface/assets/icons/mim.svg

<svg fill="none" height="60" width="60" xmlns="http://www.w3.org/2000/svg"><path d="m15 25h-5v-5h5zm0 10h-5v-5h5zm0-5h-5v-5h5zm0 10h-5v-5h5zm20-25h-5v-5h5zm0 30h-5v5h5zm5-30h-5v-5h5z" fill="#fed955"/><path d="m45 15h-5v-5h5zm-30 0h5v-5h-5zm30 30h5v-5h-5zm-30 0h-5v-5h5zm25-35h-5v-5h5z" fill="#9695f8"/><path d="m40 5h-5v-5h5zm0 55h-5v-5h5z" fill="#5552fd"/><path d="m40 55h-5v-5h5zm-10-45h-5v-5h5z" fill="#9695f8"/><path d="m30 5h-5v-5h5zm0 55h-5v-5h5z" fill="#5552fd"/><path d="m30 55h-5v-5h5zm5-45h-5v-5h5z" fill="#9695f8"/><path d="m35 5h-5v-5h5zm0 55h-5v-5h5z" fill="#5552fd"/><path d="m35 55h-5v-5h5zm-10-45h-5v-5h5z" fill="#9695f8"/><path d="m25 5h-5v-5h5zm0 55h-5v-5h5z" fill="#5552fd"/><path d="m25 55h-5v-5h5zm25-35h-5v-5h5zm-40 0h5v-5h-5zm30 30h5v-5h-5zm-20 0h-5v-5h5zm35-25h-5v-5h5zm-45 0h-5v-5h5z" fill="#9695f8"/><path d="m5 25h-5v-5h5zm5-5h-5v-5h5zm40 0h5v-5h-5zm-5 35h-5v-5h5zm-40-10v-5h5v5zm10-30h-5v-5h5zm30 0h5v-5h-5zm5 35h-5v-5h5zm-40 0v-5h5v5zm10-40h-5v-5h5zm20 0h5v-5h-5zm15 35h-5v-5h5zm-40 10v-5h5v5zm45-30h-5v-5h5z" fill="#5552fd"/><path d="m55 30h-5v-5h5zm-45 0h-5v-5h5z" fill="#9695f8"/><path d="m5 30h-5v-5h5zm55 0h-5v-5h5z" fill="#5552fd"/><path d="m55 35h-5v-5h5zm-45 0h-5v-5h5z" fill="#9695f8"/><path d="m5 35h-5v-5h5zm55 0h-5v-5h5z" fill="#5552fd"/><path d="m55 40h-5v-5h5zm-45 0h-5v-5h5z" fill="#9695f8"/><path d="m5 40h-5v-5h5zm55 0h-5v-5h5z" fill="#5552fd"/><path d="m40 45h-5v5h5zm-5-20h-5v-5h5zm0 10h-5v-5h5zm0 5h-5v-5h5zm0-20h-5v-5h5zm0 20h-5v5h5zm-10-5h-5v-5h5zm0-5h-5v-5h5zm0 10h-5v-5h5zm0-20h-5v-5h5zm0 20h-5v5h5zm15-5h-5v-5h5zm0-5h-5v-5h5zm0 10h-5v-5h5zm0-20h-5v-5h5zm0 20h-5v5h5zm-10-25h-5v-5h5zm0 30h-5v5h5zm-5-30h-5v-5h5zm0 30h-5v5h5zm5-20h-5v-5h5zm0 10h-5v-5h5z" fill="#fed955"/><path d="m25 25h-5v-5h5zm10 5h-5v-5h5zm10-5h-5v-5h5zm0 10h-5v-5h5zm0-5h-5v-5h5zm0 10h-5v-5h5zm0-20h-5v-5h5zm0 20h-5v5h5zm-25-15h-5v-5h5zm0 10h-5v-5h5zm0-5h-5v-5h5zm0 10h-5v-5h5zm0-20h-5v-5h5zm0 20h-5v5h5zm20-15h-5v-5h5zm-10 5h-5v-5h5z" fill="#5552fd"/><path d="m30 40h-5v-5h5zm0-20h-5v-5h5zm0 20h-5v5h5zm20-15h-5v-5h5zm0 10h-5v-5h5zm0-5h-5v-5h5zm0 10h-5v-5h5z" fill="#fed955"/></svg>

<svg width="60" height="60" fill="none" xmlns="http://www.w3.org/2000/svg"><path fill="#FED955" d="M15 25h-5v-5h5zM15 35h-5v-5h5zM15 30h-5v-5h5zM15 40h-5v-5h5zM35 15h-5v-5h5zM35 45h-5v5h5zM40 15h-5v-5h5z"/><path fill="#9695F8" d="M45 15h-5v-5h5zM15 15h5v-5h-5zM45 45h5v-5h-5zM15 45h-5v-5h5zM40 10h-5V5h5z"/><path fill="#5552FD" d="M40 5h-5V0h5zM40 60h-5v-5h5z"/><path fill="#9695F8" d="M40 55h-5v-5h5zM30 10h-5V5h5z"/><path fill="#5552FD" d="M30 5h-5V0h5zM30 60h-5v-5h5z"/><path fill="#9695F8" d="M30 55h-5v-5h5zM35 10h-5V5h5z"/><path fill="#5552FD" d="M35 5h-5V0h5zM35 60h-5v-5h5z"/><path fill="#9695F8" d="M35 55h-5v-5h5zM25 10h-5V5h5z"/><path fill="#5552FD" d="M25 5h-5V0h5zM25 60h-5v-5h5z"/><path fill="#9695F8" d="M25 55h-5v-5h5zM50 20h-5v-5h5zM10 20h5v-5h-5zM40 50h5v-5h-5zM20 50h-5v-5h5zM55 25h-5v-5h5zM10 25H5v-5h5z"/><path fill="#5552FD" d="M5 25H0v-5h5zM10 20H5v-5h5zM50 20h5v-5h-5zM45 55h-5v-5h5zM5 45v-5h5v5zM15 15h-5v-5h5zM45 15h5v-5h-5zM50 50h-5v-5h5zM10 50v-5h5v5zM20 10h-5V5h5zM40 10h5V5h-5zM55 45h-5v-5h5zM15 55v-5h5v5zM60 25h-5v-5h5z"/><path fill="#9695F8" d="M55 30h-5v-5h5zM10 30H5v-5h5z"/><path fill="#5552FD" d="M5 30H0v-5h5zM60 30h-5v-5h5z"/><path fill="#9695F8" d="M55 35h-5v-5h5zM10 35H5v-5h5z"/><path fill="#5552FD" d="M5 35H0v-5h5zM60 35h-5v-5h5z"/><path fill="#9695F8" d="M55 40h-5v-5h5zM10 40H5v-5h5z"/><path fill="#5552FD" d="M5 40H0v-5h5zM60 40h-5v-5h5z"/><path fill="#FED955" d="M40 45h-5v5h5zM35 25h-5v-5h5zM35 35h-5v-5h5zM35 40h-5v-5h5zM35 20h-5v-5h5zM35 40h-5v5h5zM25 35h-5v-5h5zM25 30h-5v-5h5zM25 40h-5v-5h5zM25 20h-5v-5h5zM25 40h-5v5h5zM40 35h-5v-5h5zM40 30h-5v-5h5zM40 40h-5v-5h5zM40 20h-5v-5h5zM40 40h-5v5h5zM30 15h-5v-5h5zM30 45h-5v5h5zM25 15h-5v-5h5zM25 45h-5v5h5zM30 25h-5v-5h5zM30 35h-5v-5h5z"/><path fill="#5552FD" d="M25 25h-5v-5h5zM35 30h-5v-5h5zM45 25h-5v-5h5zM45 35h-5v-5h5zM45 30h-5v-5h5zM45 40h-5v-5h5zM45 20h-5v-5h5zM45 40h-5v5h5zM20 25h-5v-5h5zM20 35h-5v-5h5zM20 30h-5v-5h5zM20 40h-5v-5h5zM20 20h-5v-5h5zM20 40h-5v5h5zM40 25h-5v-5h5zM30 30h-5v-5h5z"/><path fill="#FED955" d="M30 40h-5v-5h5zM30 20h-5v-5h5zM30 40h-5v5h5zM50 25h-5v-5h5zM50 35h-5v-5h5zM50 30h-5v-5h5zM50 40h-5v-5h5z"/></svg>
